; generated by PrusaSlicer 2.3.1+win64 on 2021-06-20 at 13:48:42 UTC


;
;

;
;
; 

; external perimeters extrusion width = 0.40mm
; perimeters extrusion width = 0.40mm
; infill extrusion width = 0.45mm
; solid infill extrusion width = 0.45mm
; top infill extrusion width = 0.40mm
; support material extrusion width = 0.35mm
; first layer extrusion width = 0.42mm

M73 P0 R13
M201 X1250 Y1250 Z400 E5000 ; sets maximum accelerations, mm/sec^2
M203 X180 Y180 Z12 E80 ; sets maximum feedrates, mm/sec
M204 P1250 R1250 T1250 ; sets acceleration (P, T) and retract acceleration (R), mm/sec^2
M205 X8.00 Y8.00 Z2.00 E10.00 ; sets the jerk limits, mm/sec
M205 S0 T0 ; sets the minimum extruding and travel feed rate, mm/sec
M107
;TYPE:Custom
G90 ; use absolute coordinates
M83 ; extruder relative mode
M104 S170 ; set extruder temp for bed leveling
M140 S60 ; set bed temp
M109 R170 ; wait for bed leveling temp
M190 S60 ; wait for bed temp
G28 ; home all without mesh bed level
G29 ; mesh bed leveling 
M104 S215 ; set extruder temp
G92 E0.0
G1 Y-2.0 X179 F2400
G1 Z3 F720
M109 S215 ; wait for extruder temp

; intro line
G1 X170 F1000
G1 Z0.2 F720
G1 X110.0 E8.0 F900
M73 P1 R13
G1 X40.0 E10.0 F700
G92 E0.0

M221 S95 ; set flow
G21 ; set units to millimeters
G90 ; use absolute coordinates
M83 ; use relative distances for extrusion
M900 K0.2 ; Filament gcode LA 1.5
; ; Filament gcode LA 1.0
;LAYER_CHANGE
;Z:0.2
;HEIGHT:0.2
;BEFORE_LAYER_CHANGE
G92 E0.0
;0.2


G1 E-3.20000 F4200.000
G1 Z0.200 F9000.000
;AFTER_LAYER_CHANGE
;0.2
G1 Z0.400
G1 X86.136 Y73.681
M73 P2 R13
G1 Z0.200
G1 E3.20000 F2400.000
M204 S800
;TYPE:Skirt
;WIDTH:0.42
G1 F1200.000
G1 X87.096 Y73.362 E0.03170
G1 X92.534 Y73.337 E0.17053
G1 X93.188 Y73.416 E0.02065
G1 X93.804 Y73.649 E0.02065
G1 X94.347 Y74.021 E0.02065
G1 X94.787 Y74.512 E0.02065
G1 X102.370 Y87.398 E0.46881
G1 X102.558 Y88.371 E0.03107
G1 X102.558 Y98.229 E0.30908
G1 X102.475 Y98.882 E0.02065
G1 X102.295 Y99.383 E0.01669
G1 X93.622 Y117.628 E0.63342
G1 X93.032 Y118.434 E0.03132
G1 X92.227 Y118.962 E0.03018
G1 X91.294 Y119.181 E0.03006
G1 X81.684 Y119.185 E0.30132
G1 X81.035 Y119.103 E0.02052
G1 X80.277 Y118.786 E0.02574
G1 X79.643 Y118.258 E0.02587
G1 X79.196 Y117.569 E0.02574
G1 X78.972 Y116.775 E0.02587
G1 X77.446 Y103.713 E0.41233
G1 X77.442 Y91.890 E0.37070
G1 X77.525 Y91.233 E0.02078
G1 X84.971 Y74.933 E0.56188
G1 X85.359 Y74.322 E0.02269
G1 X86.090 Y73.719 E0.02969
M204 S1250
G1 X86.327 Y74.007 F9000.000
M204 S800
G1 F1200.000
G1 X87.176 Y73.732 E0.02800
G1 X92.534 Y73.714 E0.16798
G1 X93.103 Y73.784 E0.01799
G1 X93.639 Y73.989 E0.01799
G1 X94.111 Y74.316 E0.01799
G1 X94.490 Y74.746 E0.01799
G1 X102.024 Y87.548 E0.46574
G1 X102.181 Y88.378 E0.02649
G1 X102.181 Y98.223 E0.30869
M73 P3 R13
G1 X102.108 Y98.792 E0.01799
G1 X93.284 Y117.462 E0.64747
G1 X92.780 Y118.154 E0.02684
G1 X92.081 Y118.615 E0.02626
G1 X91.261 Y118.805 E0.02637
G1 X81.689 Y118.808 E0.30013
G1 X81.120 Y118.735 E0.01799
G1 X80.463 Y118.458 E0.02237
G1 X79.917 Y117.998 E0.02237
G1 X79.532 Y117.397 E0.02237
G1 X79.344 Y116.710 E0.02237
G1 X77.823 Y103.692 E0.41092
G1 X77.819 Y91.895 E0.36989
G1 X77.892 Y91.322 E0.01811
G1 X85.314 Y75.091 E0.55960
G1 X85.643 Y74.571 E0.01929
G1 X86.281 Y74.046 E0.02591
M204 S1250
; printing object clock_hands.stl id:1 copy 0
G1 E-2.24000 F4200.000
;WIPE_START
G1 F7200.000
G1 X87.176 Y73.732 E-0.52598
G1 X87.873 Y73.730 E-0.38602
;WIPE_END
G1 E-0.04800 F4200.000
G1 Z0.400 F9000.000
G1 X80.196 Y91.907
G1 Z0.200
G1 E3.20000 F2400.000
M204 S800
;TYPE:Support material
G1 F1200.000
G1 X80.196 Y103.556 E0.36526
G1 X80.950 Y103.556 E0.02365
G1 X80.950 Y92.076 E0.35994
G1 X81.704 Y92.076 E0.02365
G1 X81.704 Y116.431 E0.76363
G1 X82.458 Y116.431 E0.02365
G1 X82.458 Y100.933 E0.48592
M73 P4 R13
G1 X83.213 Y100.933 E0.02365
G1 X83.213 Y116.431 E0.48592
G1 X83.967 Y116.431 E0.02365
G1 X83.967 Y100.933 E0.48592
G1 X84.124 Y100.933 E0.00493
G1 X84.124 Y113.808 E0.40368
G1 X84.721 Y113.808 E0.01872
G1 X84.721 Y116.431 E0.08224
G1 X85.475 Y116.431 E0.02365
G1 X85.475 Y113.808 E0.08224
G1 X86.229 Y113.808 E0.02365
G1 X86.229 Y116.431 E0.08224
G1 X86.983 Y116.431 E0.02365
G1 X86.983 Y113.808 E0.08224
G1 X87.738 Y113.808 E0.02365
G1 X87.738 Y116.431 E0.08224
G1 X88.492 Y116.431 E0.02365
G1 X88.492 Y90.237 E0.82129
G1 X88.858 Y90.237 E0.01149
G1 X88.858 Y88.398 E0.05767
G1 X89.246 Y88.398 E0.01215
G1 X89.246 Y116.431 E0.87896
G1 X90.000 Y116.431 E0.02365
G1 X90.000 Y88.398 E0.87896
M73 P5 R12
G1 X90.754 Y88.398 E0.02365
G1 X90.754 Y116.431 E0.87896
G1 X91.142 Y116.431 E0.01215
G1 X91.142 Y101.717 E0.46135
G1 X91.508 Y101.717 E0.01149
G1 X91.508 Y88.398 E0.41761
G1 X92.262 Y88.398 E0.02365
G1 X92.262 Y101.717 E0.41761
G1 X92.981 Y101.717 E0.02253
G1 X92.981 Y99.878 E0.05767
G1 X93.017 Y99.878 E0.00112
G1 X93.017 Y88.398 E0.35994
G1 X93.771 Y88.398 E0.02365
G1 X93.771 Y99.878 E0.35994
G1 X94.525 Y99.878 E0.02365
G1 X94.525 Y88.398 E0.35994
G1 X95.279 Y88.398 E0.02365
G1 X95.279 Y99.878 E0.35994
G1 X96.033 Y99.878 E0.02365
G1 X96.033 Y88.398 E0.35994
G1 X96.787 Y88.398 E0.02365
G1 X96.787 Y98.038 E0.30227
G1 X97.542 Y98.038 E0.02365
G1 X97.542 Y88.398 E0.30227
M73 P6 R12
G1 X98.296 Y88.398 E0.02365
G1 X98.296 Y98.038 E0.30227
G1 X99.050 Y98.038 E0.02365
G1 X99.050 Y88.398 E0.30227
G1 X99.804 Y88.398 E0.02365
G1 X99.804 Y98.208 E0.30759
M204 S1250
G1 X87.738 Y94.869 F9000.000
M204 S800
G1 F1200.000
G1 X87.738 Y90.237 E0.14523
G1 X86.983 Y90.237 E0.02365
G1 X86.983 Y94.699 E0.13991
G1 X86.229 Y94.699 E0.02365
G1 X86.229 Y90.237 E0.13991
G1 X85.475 Y90.237 E0.02365
G1 X85.475 Y94.699 E0.13991
G1 X84.721 Y94.699 E0.02365
G1 X84.721 Y92.076 E0.08224
G1 X83.967 Y92.076 E0.02365
G1 X83.967 Y94.699 E0.08224
G1 X83.213 Y94.699 E0.02365
G1 X83.213 Y92.076 E0.08224
G1 X82.458 Y92.076 E0.02365
G1 X82.458 Y94.869 E0.08756
M204 S1250
G1 E-2.24000 F4200.000
;WIPE_START
G1 F7200.000
G1 X82.458 Y93.223 E-0.91200
;WIPE_END
G1 E-0.04800 F4200.000
G1 Z0.400 F9000.000
G1 X82.990 Y100.728
G1 Z0.200
G1 E3.20000 F2400.000
M204 S800
;TYPE:Support material interface
;WIDTH:0.35
G1 F1200.000
G1 X82.990 Y95.057 E0.14479
G1 X83.529 Y95.057 E0.01377
G1 X83.529 Y100.575 E0.14089
G1 X84.068 Y100.575 E0.01377
G1 X84.068 Y99.699 E0.02237
G1 X83.929 Y99.490 E0.00641
G1 X83.818 Y99.269 E0.00632
G1 X83.725 Y99.007 E0.00708
G1 X83.663 Y98.704 E0.00790
G1 X83.646 Y98.417 E0.00735
G1 X83.667 Y98.130 E0.00735
G1 X83.725 Y97.854 E0.00720
G1 X83.818 Y97.593 E0.00708
G1 X83.929 Y97.371 E0.00632
G1 X84.068 Y97.162 E0.00642
G1 X84.068 Y95.057 E0.05374
G1 X84.607 Y95.057 E0.01377
G1 X84.607 Y96.658 E0.04087
G1 X84.929 Y96.481 E0.00938
G1 X85.147 Y96.404 E0.00589
G1 X85.147 Y95.057 E0.03438
G1 X85.686 Y95.057 E0.01377
G1 X85.686 Y96.314 E0.03208
G1 X86.041 Y96.327 E0.00907
G1 X86.225 Y96.362 E0.00479
G1 X86.225 Y95.057 E0.03332
G1 X86.764 Y95.057 E0.01377
G1 X86.764 Y96.561 E0.03840
G1 X87.053 Y96.743 E0.00872
G1 X87.304 Y96.971 E0.00864
G1 X87.304 Y95.057 E0.04886
G1 X87.843 Y95.057 E0.01377
G1 X87.843 Y113.603 E0.47353
M204 S1250
G1 X87.304 Y113.603 F9000.000
M204 S800
G1 F1200.000
G1 X87.304 Y99.890 E0.35013
G1 X87.053 Y100.118 E0.00864
G1 X86.764 Y100.300 E0.00872
G1 X86.764 Y113.450 E0.33577
M73 P7 R12
G1 X86.225 Y113.450 E0.01377
G1 X86.225 Y100.499 E0.33069
G1 X86.041 Y100.535 E0.00479
G1 X85.686 Y100.548 E0.00907
G1 X85.686 Y113.450 E0.32945
G1 X85.147 Y113.450 E0.01377
G1 X85.147 Y100.457 E0.33175
G1 X84.929 Y100.380 E0.00589
G1 X84.607 Y100.203 E0.00938
G1 X84.607 Y113.603 E0.34214
M204 S1250
G1 E-2.24000 F4200.000
;WIPE_START
G1 F7200.000
G1 X84.607 Y111.957 E-0.91200
;WIPE_END
G1 E-0.04800 F4200.000
G1 Z0.400 F9000.000
G1 X85.691 Y98.971
G1 Z0.200
G1 E3.20000 F2400.000
M204 S800
;TYPE:Perimeter
;WIDTH:0.42
G1 F1200.000
G1 X85.520 Y98.916 E0.00562
G1 X85.386 Y98.812 E0.00533
G1 X85.282 Y98.677 E0.00533
G1 X85.227 Y98.507 E0.00562
G1 X85.227 Y98.355 E0.00477
G1 X85.282 Y98.184 E0.00562
G1 X85.386 Y98.049 E0.00533
G1 X85.520 Y97.945 E0.00533
G1 X85.683 Y97.892 E0.00536
G1 X85.843 Y97.891 E0.00503
G1 X86.014 Y97.945 E0.00562
G1 X86.148 Y98.049 E0.00533
G1 X86.252 Y98.184 E0.00533
G1 X86.307 Y98.355 E0.00562
G1 X86.307 Y98.507 E0.00477
G1 X86.252 Y98.677 E0.00562
G1 X86.148 Y98.812 E0.00533
G1 X85.979 Y98.933 E0.00653
G1 X85.751 Y98.975 E0.00727
M204 S1250
G1 X85.408 Y99.281 F9000.000
M204 S800
G1 F1200.000
G1 X85.319 Y99.237 E0.00313
G1 X85.117 Y99.081 E0.00799
G1 X84.961 Y98.879 E0.00799
G1 X84.916 Y98.790 E0.00313
G1 X84.853 Y98.557 E0.00756
G1 X84.844 Y98.431 E0.00398
G1 X84.853 Y98.304 E0.00398
G1 X84.916 Y98.071 E0.00756
G1 X84.961 Y97.982 E0.00313
G1 X85.117 Y97.780 E0.00799
G1 X85.319 Y97.625 E0.00799
G1 X85.408 Y97.580 E0.00313
G1 X85.635 Y97.517 E0.00740
G1 X85.793 Y97.509 E0.00495
G1 X86.013 Y97.541 E0.00698
G1 X86.126 Y97.580 E0.00375
G1 X86.216 Y97.625 E0.00313
G1 X86.417 Y97.780 E0.00799
G1 X86.573 Y97.982 E0.00799
G1 X86.618 Y98.071 E0.00313
G1 X86.682 Y98.304 E0.00756
G1 X86.690 Y98.431 E0.00398
G1 X86.682 Y98.557 E0.00398
G1 X86.618 Y98.790 E0.00756
G1 X86.573 Y98.879 E0.00313
G1 X86.417 Y99.081 E0.00799
G1 X86.216 Y99.237 E0.00799
G1 X86.126 Y99.281 E0.00313
G1 X85.894 Y99.345 E0.00756
G1 X85.767 Y99.354 E0.00398
G1 X85.640 Y99.345 E0.00398
G1 X85.465 Y99.301 E0.00568
M204 S1250
G1 X85.261 Y99.629 F9000.000
M204 S800
;TYPE:External perimeter
G1 F1200.000
G1 X85.117 Y99.557 E0.00505
G1 X84.848 Y99.350 E0.01065
G1 X84.641 Y99.081 E0.01065
G1 X84.568 Y98.937 E0.00505
G1 X84.478 Y98.608 E0.01069
G1 X84.466 Y98.431 E0.00557
G1 X84.478 Y98.253 E0.00557
G1 X84.568 Y97.924 E0.01069
G1 X84.641 Y97.780 E0.00505
G1 X84.848 Y97.512 E0.01065
G1 X85.117 Y97.304 E0.01065
G1 X85.261 Y97.232 E0.00505
G1 X85.588 Y97.142 E0.01064
G1 X85.796 Y97.132 E0.00654
G1 X86.113 Y97.176 E0.01004
G1 X86.273 Y97.232 E0.00531
G1 X86.417 Y97.304 E0.00505
G1 X86.686 Y97.512 E0.01065
G1 X86.894 Y97.780 E0.01065
G1 X86.966 Y97.924 E0.00505
G1 X87.056 Y98.253 E0.01069
G1 X87.068 Y98.431 E0.00557
G1 X87.056 Y98.608 E0.00557
G1 X86.966 Y98.937 E0.01069
G1 X86.894 Y99.081 E0.00505
G1 X86.686 Y99.350 E0.01065
G1 X86.417 Y99.557 E0.01065
G1 X86.273 Y99.629 E0.00505
G1 X85.944 Y99.720 E0.01069
G1 X85.767 Y99.732 E0.00557
G1 X85.590 Y99.720 E0.00557
G1 X85.318 Y99.649 E0.00882
M204 S1250
G1 X85.237 Y99.470 F9000.000
G1 X86.181 Y98.530
M204 S800
;TYPE:Solid infill
;WIDTH:0.48717
G1 F1200.000
G1 X85.836 Y98.185 E0.01802
G1 X85.729 Y98.175 E0.00396
G1 X85.655 Y98.199 E0.00290
G1 X85.587 Y98.251 E0.00313
G1 X85.536 Y98.317 E0.00310
G1 X85.510 Y98.399 E0.00315
G1 X85.522 Y98.500 E0.00375
G1 X85.867 Y98.844 E0.01801
M204 S1250
; stop printing object clock_hands.stl id:1 copy 0
; printing object door_knob_rear.stl id:0 copy 0
G1 E-2.24000 F4200.000
;WIPE_START
G1 F7200.000
G1 X85.522 Y98.500 E-0.27021
G1 X85.510 Y98.399 E-0.05623
G1 X85.536 Y98.317 E-0.04733
G1 X85.587 Y98.251 E-0.04658
G1 X85.655 Y98.199 E-0.04701
G1 X85.729 Y98.175 E-0.04348
G1 X85.836 Y98.185 E-0.05941
G1 X86.181 Y98.530 E-0.27035
;WIPE_END
G1 E-0.11940 F4200.000
G1 Z0.400 F9000.000
G1 X88.634 Y85.416
G1 Z0.200
G1 E3.20000 F2400.000
M204 S800
;TYPE:Perimeter
;WIDTH:0.42
G1 F1200.000
G1 X88.634 Y77.255 E0.25587
G1 X91.366 Y77.255 E0.08565
G1 X91.366 Y85.416 E0.25587
G1 X88.694 Y85.416 E0.08377
M204 S1250
G1 X88.257 Y85.793 F9000.000
M204 S800
G1 F1200.000
G1 X88.257 Y76.878 E0.27951
G1 X91.743 Y76.878 E0.10930
G1 X91.743 Y85.793 E0.27951
G1 X88.317 Y85.793 E0.10742
M204 S1250
M73 P8 R12
G1 X87.880 Y86.170 F9000.000
M204 S800
;TYPE:External perimeter
G1 F1200.000
G1 X87.880 Y76.501 E0.30316
G1 X92.120 Y76.501 E0.13295
G1 X92.120 Y86.170 E0.30316
G1 X87.940 Y86.170 E0.13106
M204 S1250
G1 X87.935 Y85.774 F9000.000
G1 E-2.24000 F4200.000
;WIPE_START
G1 F7200.000
G1 X87.930 Y84.524 E-0.91200
;WIPE_END
G1 E-0.04800 F4200.000
G1 Z0.400 F9000.000
G1 X90.460 Y77.368
G1 Z0.200
G1 E3.20000 F2400.000
M204 S800
;TYPE:Solid infill
;WIDTH:0.434256
G1 F1200.000
G1 X91.083 Y77.991 E0.02866
G1 X91.083 Y78.544 E0.01801
G1 X90.077 Y77.538 E0.04632
G1 X89.523 Y77.538 E0.01801
G1 X91.083 Y79.098 E0.07179
G1 X91.083 Y79.651 E0.01801
G1 X88.970 Y77.538 E0.09726
G1 X88.917 Y77.538 E0.00172
G1 X88.917 Y78.039 E0.01629
G1 X91.083 Y80.205 E0.09968
G1 X91.083 Y80.758 E0.01801
G1 X88.917 Y78.592 E0.09968
G1 X88.917 Y79.145 E0.01801
G1 X91.083 Y81.312 E0.09968
G1 X91.083 Y81.865 E0.01801
G1 X88.917 Y79.699 E0.09968
G1 X88.917 Y80.252 E0.01801
G1 X91.083 Y82.419 E0.09968
G1 X91.083 Y82.972 E0.01801
G1 X88.917 Y80.806 E0.09968
G1 X88.917 Y81.359 E0.01801
G1 X91.083 Y83.525 E0.09968
G1 X91.083 Y84.079 E0.01801
G1 X88.917 Y81.913 E0.09968
G1 X88.917 Y82.466 E0.01801
G1 X91.083 Y84.632 E0.09968
G1 X91.083 Y85.133 E0.01629
G1 X91.030 Y85.133 E0.00172
G1 X88.917 Y83.019 E0.09725
G1 X88.917 Y83.573 E0.01801
G1 X90.477 Y85.133 E0.07178
G1 X89.923 Y85.133 E0.01801
G1 X88.917 Y84.126 E0.04631
G1 X88.917 Y84.680 E0.01801
G1 X89.540 Y85.302 E0.02866
M204 S1250
; stop printing object door_knob_rear.stl id:0 copy 0
M106 S84.15
;LAYER_CHANGE
;Z:0.25
;HEIGHT:0.05
;BEFORE_LAYER_CHANGE
G92 E0.0
;0.25


G1 E-2.24000 F4200.000
;WIPE_START
G1 F7200.000
G1 X88.917 Y84.680 E-0.48801
G1 X88.917 Y84.126 E-0.30669
G1 X89.067 Y84.276 E-0.11730
;WIPE_END
G1 E-0.04800 F4200.000
G1 Z0.400 F9000.000
;AFTER_LAYER_CHANGE
;0.25
G1 X86.136 Y73.681
G1 Z0.250
G1 E3.20000 F2400.000
;TYPE:Skirt
;WIDTH:0.42
G1 F1800.000
G1 X87.096 Y73.362 E0.00860
G1 X92.534 Y73.337 E0.04627
G1 X93.188 Y73.416 E0.00560
G1 X93.804 Y73.649 E0.00560
G1 X94.347 Y74.021 E0.00560
G1 X94.787 Y74.512 E0.00560
G1 X102.370 Y87.398 E0.12721
G1 X102.558 Y88.371 E0.00843
G1 X102.558 Y98.229 E0.08387
G1 X102.475 Y98.882 E0.00560
G1 X102.295 Y99.383 E0.00453
G1 X93.622 Y117.628 E0.17187
G1 X93.032 Y118.434 E0.00850
G1 X92.227 Y118.962 E0.00819
G1 X91.294 Y119.181 E0.00816
G1 X81.684 Y119.185 E0.08176
G1 X81.035 Y119.103 E0.00557
G1 X80.277 Y118.786 E0.00699
G1 X79.643 Y118.258 E0.00702
G1 X79.196 Y117.569 E0.00699
G1 X78.972 Y116.775 E0.00702
G1 X77.446 Y103.713 E0.11188
M73 P9 R12
G1 X77.442 Y91.890 E0.10059
G1 X77.525 Y91.233 E0.00564
G1 X84.971 Y74.933 E0.15246
G1 X85.359 Y74.322 E0.00616
G1 X86.090 Y73.719 E0.00806
G1 X86.327 Y74.007 F9000.000
G1 F1800.000
G1 X87.176 Y73.732 E0.00760
G1 X92.534 Y73.714 E0.04558
G1 X93.103 Y73.784 E0.00488
G1 X93.639 Y73.989 E0.00488
G1 X94.111 Y74.316 E0.00488
G1 X94.490 Y74.746 E0.00488
G1 X102.024 Y87.548 E0.12638
G1 X102.181 Y88.378 E0.00719
G1 X102.181 Y98.223 E0.08376
G1 X102.108 Y98.792 E0.00488
G1 X93.284 Y117.462 E0.17568
G1 X92.780 Y118.154 E0.00728
G1 X92.081 Y118.615 E0.00712
G1 X91.261 Y118.805 E0.00716
G1 X81.689 Y118.808 E0.08144
G1 X81.120 Y118.735 E0.00488
G1 X80.463 Y118.458 E0.00607
G1 X79.917 Y117.998 E0.00607
G1 X79.532 Y117.397 E0.00607
G1 X79.344 Y116.710 E0.00607
G1 X77.823 Y103.692 E0.11150
G1 X77.819 Y91.895 E0.10037
G1 X77.892 Y91.322 E0.00491
G1 X85.314 Y75.091 E0.15184
G1 X85.643 Y74.571 E0.00524
G1 X86.281 Y74.046 E0.00703
; printing object clock_hands.stl id:1 copy 0
G1 E-2.24000 F4200.000
;WIPE_START
G1 F7200.000
G1 X87.176 Y73.732 E-0.52598
G1 X87.873 Y73.730 E-0.38602
;WIPE_END
G1 E-0.04800 F4200.000
G1 Z0.450 F9000.000
G1 X85.647 Y97.710
G1 Z0.250
G1 E3.20000 F2400.000
M204 S300
;TYPE:Perimeter
;WIDTH:0.4
G1 F900.000
G1 X85.806 Y97.706 E0.00129
G1 X85.986 Y97.734 E0.00147
G1 X86.136 Y97.799 E0.00132
G1 X86.346 Y97.984 E0.00227
G1 X86.472 Y98.235 E0.00227
G1 X86.498 Y98.431 E0.00159
G1 X86.491 Y98.532 E0.00082
G1 X86.472 Y98.626 E0.00078
G1 X86.399 Y98.799 E0.00152
G1 X86.213 Y99.010 E0.00227
G1 X85.963 Y99.136 E0.00227
G1 X85.767 Y99.162 E0.00159
G1 X85.666 Y99.155 E0.00082
G1 X85.572 Y99.136 E0.00078
G1 X85.399 Y99.063 E0.00152
G1 X85.188 Y98.877 E0.00227
G1 X85.062 Y98.626 E0.00227
G1 X85.036 Y98.431 E0.00160
G1 X85.043 Y98.330 E0.00082
G1 X85.062 Y98.235 E0.00078
G1 X85.135 Y98.062 E0.00152
G1 X85.321 Y97.851 E0.00227
G1 X85.483 Y97.757 E0.00152
G1 X85.588 Y97.722 E0.00090
M204 S1250
G1 X85.510 Y97.341 F9000.000
M204 S300
G1 F900.000
G1 X85.830 Y97.316 E0.00260
G1 X86.080 Y97.354 E0.00204
G1 X86.333 Y97.462 E0.00223
