; generated by PrusaSlicer 2.3.1+win64 on 2021-06-14 at 23:35:36 UTC


;
;

;
;
; 

; external perimeters extrusion width = 0.45mm
; perimeters extrusion width = 0.45mm
; infill extrusion width = 0.45mm
; solid infill extrusion width = 0.45mm
; top infill extrusion width = 0.40mm
; support material extrusion width = 0.35mm
; first layer extrusion width = 0.42mm

M73 P0 R48
M201 X1250 Y1250 Z400 E5000 ; sets maximum accelerations, mm/sec^2
M203 X180 Y180 Z12 E80 ; sets maximum feedrates, mm/sec
M204 P1250 R1250 T1250 ; sets acceleration (P, T) and retract acceleration (R), mm/sec^2
M205 X8.00 Y8.00 Z2.00 E10.00 ; sets the jerk limits, mm/sec
M205 S0 T0 ; sets the minimum extruding and travel feed rate, mm/sec
M107
;TYPE:Custom
G90 ; use absolute coordinates
M83 ; extruder relative mode
M104 S170 ; set extruder temp for bed leveling
M140 S60 ; set bed temp
M109 R170 ; wait for bed leveling temp
M190 S60 ; wait for bed temp
G28 ; home all without mesh bed level
G29 ; mesh bed leveling 
M104 S215 ; set extruder temp
G92 E0.0
G1 Y-2.0 X179 F2400
M73 P0 R47
G1 Z3 F720
M109 S215 ; wait for extruder temp

; intro line
G1 X170 F1000
G1 Z0.2 F720
G1 X110.0 E8.0 F900
G1 X40.0 E10.0 F700
G92 E0.0

M221 S95 ; set flow
G21 ; set units to millimeters
G90 ; use absolute coordinates
M83 ; use relative distances for extrusion
M900 K0.2 ; Filament gcode LA 1.5
; ; Filament gcode LA 1.0
;LAYER_CHANGE
;Z:0.2
;HEIGHT:0.2
;BEFORE_LAYER_CHANGE
G92 E0.0
;0.2


G1 E-3.20000 F4200.000
G1 Z0.200 F9000.000
;AFTER_LAYER_CHANGE
;0.2
G1 Z0.400
G1 X72.302 Y60.456
G1 Z0.200
G1 E3.20000 F2400.000
M204 S800
;TYPE:Skirt
;WIDTH:0.42
G1 F1200.000
G1 X73.063 Y59.960 E0.02849
G1 X73.959 Y59.786 E0.02860
G1 X105.719 Y59.957 E0.99585
G1 X106.290 Y60.049 E0.01811
G1 X106.821 Y60.275 E0.01811
G1 X107.285 Y60.626 E0.01823
G1 X107.648 Y61.075 E0.01811
G1 X107.911 Y61.660 E0.02012
G1 X108.007 Y62.295 E0.02012
G1 X108.421 Y91.800 E0.92521
G1 X108.421 Y111.219 E0.60886
G1 X108.343 Y111.810 E0.01870
G1 X108.119 Y112.363 E0.01870
G1 X107.765 Y112.843 E0.01870
G1 X107.303 Y113.220 E0.01870
G1 X106.481 Y113.540 E0.02767
G1 X100.254 Y114.537 E0.19773
G1 X80.436 Y114.816 E0.62144
G1 X73.662 Y113.303 E0.21763
G1 X72.919 Y112.917 E0.02626
G1 X72.354 Y112.294 E0.02637
G1 X72.089 Y111.705 E0.02024
G1 X71.993 Y111.070 E0.02012
G1 X71.579 Y81.566 E0.92516
G1 X71.580 Y62.091 E0.61065
G1 X71.781 Y61.205 E0.02849
G1 X72.267 Y60.505 E0.02672
M204 S1250
; printing object speaker.stl id:1 copy 0
G1 E-2.24000 F4200.000
;WIPE_START
G1 F7200.000
G1 X73.063 Y59.960 E-0.53444
G1 X73.732 Y59.830 E-0.37756
;WIPE_END
G1 E-0.04800 F4200.000
G1 Z0.400 F9000.000
G1 X73.956 Y62.163
G1 Z0.200
G1 E3.20000 F2400.000
M204 S800
;TYPE:Support material
G1 F1200.000
G1 X73.956 Y81.545 E0.60769
G1 X74.710 Y81.545 E0.02365
G1 X74.710 Y62.333 E0.60237
G1 X75.464 Y62.333 E0.02365
G1 X75.464 Y81.545 E0.60237
M73 P1 R47
G1 X76.218 Y81.545 E0.02365
G1 X76.218 Y62.333 E0.60237
G1 X76.972 Y62.333 E0.02365
G1 X76.972 Y81.545 E0.60237
G1 X77.727 Y81.545 E0.02365
G1 X77.727 Y62.333 E0.60237
G1 X78.481 Y62.333 E0.02365
G1 X78.481 Y81.545 E0.60237
G1 X79.235 Y81.545 E0.02365
G1 X79.235 Y62.333 E0.60237
G1 X79.989 Y62.333 E0.02365
G1 X79.989 Y68.230 E0.18489
G1 X80.743 Y68.219 E0.02365
G1 X80.743 Y62.333 E0.18456
G1 X81.497 Y62.333 E0.02365
G1 X81.497 Y68.208 E0.18423
G1 X82.252 Y68.198 E0.02365
G1 X82.252 Y62.333 E0.18389
G1 X83.006 Y62.333 E0.02365
G1 X83.006 Y68.187 E0.18356
G1 X83.760 Y68.177 E0.02365
G1 X83.760 Y62.333 E0.18323
G1 X84.514 Y62.333 E0.02365
G1 X84.514 Y68.166 E0.18290
G1 X85.268 Y68.155 E0.02365
G1 X85.268 Y62.333 E0.18257
G1 X86.022 Y62.333 E0.02365
G1 X86.022 Y68.145 E0.18224
G1 X86.777 Y68.134 E0.02365
G1 X86.777 Y62.333 E0.18190
G1 X87.531 Y62.333 E0.02365
G1 X87.531 Y68.124 E0.18157
G1 X88.285 Y68.113 E0.02365
G1 X88.285 Y62.333 E0.18124
G1 X89.039 Y62.333 E0.02365
G1 X89.039 Y68.103 E0.18091
G1 X89.793 Y68.092 E0.02365
G1 X89.793 Y62.333 E0.18058
G1 X90.547 Y62.333 E0.02365
G1 X90.547 Y68.081 E0.18024
G1 X91.301 Y68.071 E0.02365
G1 X91.301 Y62.333 E0.17991
G1 X92.056 Y62.333 E0.02365
G1 X92.056 Y68.060 E0.17958
G1 X92.810 Y68.050 E0.02365
G1 X92.810 Y62.333 E0.17925
G1 X93.564 Y62.333 E0.02365
G1 X93.564 Y68.039 E0.17892
G1 X94.318 Y68.028 E0.02365
G1 X94.318 Y62.333 E0.17858
G1 X95.072 Y62.333 E0.02365
G1 X95.072 Y68.018 E0.17825
G1 X95.826 Y68.007 E0.02365
G1 X95.826 Y62.333 E0.17792
G1 X96.581 Y62.333 E0.02365
G1 X96.581 Y67.997 E0.17759
G1 X97.335 Y67.986 E0.02365
G1 X97.335 Y62.333 E0.17726
G1 X98.089 Y62.333 E0.02365
G1 X98.089 Y67.976 E0.17692
G1 X98.843 Y67.965 E0.02365
G1 X98.843 Y62.333 E0.17659
G1 X99.597 Y62.333 E0.02365
G1 X99.597 Y67.954 E0.17626
G1 X99.710 Y67.953 E0.00353
G1 X100.022 Y68.257 E0.01366
G1 X100.209 Y81.545 E0.41668
G1 X100.351 Y81.545 E0.00447
G1 X100.351 Y62.333 E0.60237
G1 X101.106 Y62.333 E0.02365
G1 X101.106 Y81.545 E0.60237
G1 X101.860 Y81.545 E0.02365
G1 X101.860 Y62.333 E0.60237
G1 X102.614 Y62.333 E0.02365
G1 X102.614 Y81.545 E0.60237
G1 X103.368 Y81.545 E0.02365
G1 X103.368 Y62.333 E0.60237
G1 X104.122 Y62.333 E0.02365
G1 X104.122 Y81.545 E0.60237
G1 X104.876 Y81.545 E0.02365
G1 X104.876 Y62.333 E0.60237
G1 X105.630 Y62.333 E0.02365
G1 X105.630 Y81.714 E0.60769
M204 S1250
G1 E-2.24000 F4200.000
;WIPE_START
G1 F7200.000
G1 X105.630 Y80.069 E-0.91200
;WIPE_END
G1 E-0.04800 F4200.000
G1 Z0.400 F9000.000
G1 X97.335 Y81.172
G1 Z0.200
G1 E3.20000 F2400.000
M204 S800
G1 F1200.000
G1 X97.335 Y70.218 E0.34345
G1 X96.581 Y70.229 E0.02365
G1 X96.581 Y70.997 E0.02409
G1 X95.826 Y71.007 E0.02365
G1 X95.826 Y70.239 E0.02409
G1 X95.072 Y70.250 E0.02365
G1 X95.072 Y71.018 E0.02409
G1 X94.318 Y71.029 E0.02365
G1 X94.318 Y70.260 E0.02409
G1 X93.564 Y70.271 E0.02365
G1 X93.564 Y71.039 E0.02409
G1 X92.810 Y71.050 E0.02365
G1 X92.810 Y70.281 E0.02409
G1 X92.056 Y70.292 E0.02365
G1 X92.056 Y71.060 E0.02409
G1 X91.301 Y71.071 E0.02365
G1 X91.301 Y70.303 E0.02409
G1 X90.547 Y70.313 E0.02365
G1 X90.547 Y71.082 E0.02409
G1 X89.793 Y71.092 E0.02365
G1 X89.793 Y70.324 E0.02409
G1 X89.039 Y70.334 E0.02365
G1 X89.039 Y71.103 E0.02409
G1 X88.285 Y71.113 E0.02365
G1 X88.285 Y70.345 E0.02409
G1 X87.531 Y70.356 E0.02365
G1 X87.531 Y71.124 E0.02409
G1 X86.777 Y71.134 E0.02365
G1 X86.777 Y70.366 E0.02409
G1 X86.022 Y70.377 E0.02365
G1 X86.022 Y71.145 E0.02409
G1 X85.268 Y71.156 E0.02365
G1 X85.268 Y70.387 E0.02409
G1 X84.514 Y70.398 E0.02365
G1 X84.514 Y71.166 E0.02409
G1 X83.760 Y71.177 E0.02365
G1 X83.760 Y70.409 E0.02409
G1 X83.006 Y70.419 E0.02365
G1 X83.006 Y71.187 E0.02409
G1 X82.393 Y71.196 E0.01921
G1 X82.534 Y81.210 E0.31401
G1 X82.252 Y81.214 E0.00885
G1 X82.252 Y70.260 E0.34345
M204 S1250
G1 E-2.24000 F4200.000
;WIPE_START
G1 F7200.000
G1 X82.252 Y71.906 E-0.91200
;WIPE_END
G1 E-0.04800 F4200.000
G1 Z0.400 F9000.000
G1 X98.281 Y69.277
G1 Z0.200
G1 E3.20000 F2400.000
M204 S800
;TYPE:External perimeter
G1 F1200.000
G1 X98.459 Y81.914 E0.39624
G1 X81.302 Y82.155 E0.53800
M73 P2 R47
G1 X81.124 Y69.518 E0.39624
G1 X98.221 Y69.278 E0.53611
M204 S1250
G1 X98.671 Y69.188 F9000.000
G1 X98.659 Y69.281
M204 S800
;TYPE:Perimeter
G1 F1200.000
G1 X98.723 Y69.280 E0.00203
G1 X98.900 Y81.899 E0.39570
G1 X98.836 Y81.900 E0.00203
G1 X98.659 Y69.341 E0.39382
M204 S1250
G1 E-2.24000 F4200.000
;WIPE_START
G1 F7200.000
G1 X98.723 Y69.280 E-0.04893
G1 X98.745 Y70.837 E-0.86307
;WIPE_END
G1 E-0.04800 F4200.000
G1 Z0.400 F9000.000
G1 X80.748 Y69.592
G1 Z0.200
G1 E3.20000 F2400.000
M204 S800
G1 F1200.000
G1 X80.925 Y82.151 E0.39382
G1 X80.860 Y82.152 E0.00203
G1 X80.683 Y69.533 E0.39570
G1 X80.748 Y69.532 E0.00203
M204 S1250
G1 X80.300 Y69.161 F9000.000
M204 S800
;TYPE:External perimeter
G1 F1200.000
G1 X99.095 Y68.897 E0.58935
G1 X99.283 Y82.271 E0.41935
G1 X80.488 Y82.534 E0.58935
M73 P2 R46
G1 X80.301 Y69.221 E0.41747
M204 S1250
G1 X80.693 Y69.238 F9000.000
G1 E-2.24000 F4200.000
;WIPE_START
G1 F7200.000
G1 X81.947 Y69.193 E-0.91200
;WIPE_END
G1 E-0.04800 F4200.000
G1 Z0.400 F9000.000
G1 X88.442 Y74.704
G1 Z0.200
G1 E3.20000 F2400.000
M204 S800
;TYPE:Perimeter
G1 F1200.000
G1 X88.582 Y74.540 E0.00678
G1 X88.743 Y74.395 E0.00678
G1 X88.920 Y74.271 E0.00679
G1 X89.113 Y74.171 E0.00682
G1 X89.320 Y74.096 E0.00688
G1 X89.538 Y74.048 E0.00701
G1 X89.768 Y74.029 E0.00723
G1 X89.998 Y74.042 E0.00723
G1 X90.218 Y74.083 E0.00701
G1 X90.426 Y74.152 E0.00688
G1 X90.622 Y74.247 E0.00682
G1 X90.803 Y74.366 E0.00679
G1 X90.967 Y74.507 E0.00678
G1 X91.113 Y74.667 E0.00678
G1 X91.236 Y74.845 E0.00679
G1 X91.337 Y75.038 E0.00682
G1 X91.412 Y75.244 E0.00688
G1 X91.459 Y75.462 E0.00701
G1 X91.478 Y75.692 E0.00723
G1 X91.466 Y75.923 E0.00723
G1 X91.424 Y76.142 E0.00701
G1 X91.355 Y76.350 E0.00688
G1 X91.260 Y76.546 E0.00682
G1 X91.141 Y76.727 E0.00679
G1 X91.001 Y76.892 E0.00678
G1 X90.841 Y77.037 E0.00678
G1 X90.663 Y77.161 E0.00679
G1 X90.470 Y77.261 E0.00682
G1 X90.263 Y77.336 E0.00688
G1 X90.045 Y77.384 E0.00701
G1 X89.815 Y77.402 E0.00723
G1 X89.585 Y77.390 E0.00723
G1 X89.365 Y77.349 E0.00701
G1 X89.157 Y77.279 E0.00688
G1 X88.961 Y77.185 E0.00682
G1 X88.780 Y77.066 E0.00679
G1 X88.616 Y76.925 E0.00678
G1 X88.471 Y76.765 E0.00678
G1 X88.347 Y76.587 E0.00679
G1 X88.247 Y76.394 E0.00682
G1 X88.172 Y76.188 E0.00688
G1 X88.124 Y75.969 E0.00701
G1 X88.105 Y75.740 E0.00723
G1 X88.117 Y75.509 E0.00723
G1 X88.159 Y75.290 E0.00701
G1 X88.228 Y75.081 E0.00688
G1 X88.409 Y74.755 E0.01171
M204 S1250
G1 X88.093 Y74.548 F9000.000
M204 S800
;TYPE:External perimeter
G1 F1200.000
G1 X88.311 Y74.277 E0.01091
G1 X88.507 Y74.099 E0.00829
G1 X88.725 Y73.948 E0.00831
G1 X88.961 Y73.825 E0.00836
G1 X89.215 Y73.733 E0.00844
G1 X89.482 Y73.674 E0.00859
G1 X89.763 Y73.651 E0.00882
G1 X90.044 Y73.666 E0.00882
G1 X90.313 Y73.718 E0.00859
G1 X90.568 Y73.802 E0.00844
G1 X90.808 Y73.919 E0.00836
G1 X91.030 Y74.064 E0.00831
G1 X91.231 Y74.236 E0.00829
G1 X91.408 Y74.432 E0.00829
G1 X91.560 Y74.649 E0.00831
G1 X91.683 Y74.886 E0.00836
G1 X91.775 Y75.139 E0.00844
G1 X91.833 Y75.406 E0.00859
G1 X91.856 Y75.687 E0.00882
G1 X91.841 Y75.968 E0.00882
G1 X91.790 Y76.237 E0.00859
G1 X91.705 Y76.493 E0.00844
G1 X91.589 Y76.733 E0.00836
G1 X91.444 Y76.954 E0.00831
G1 X91.272 Y77.155 E0.00829
G1 X91.076 Y77.333 E0.00829
G1 X90.858 Y77.484 E0.00831
G1 X90.622 Y77.607 E0.00836
G1 X90.369 Y77.699 E0.00844
G1 X90.101 Y77.758 E0.00859
G1 X89.821 Y77.780 E0.00882
G1 X89.540 Y77.765 E0.00882
G1 X89.270 Y77.714 E0.00859
G1 X89.015 Y77.630 E0.00844
G1 X88.775 Y77.513 E0.00836
G1 X88.553 Y77.368 E0.00831
G1 X88.352 Y77.196 E0.00829
G1 X88.175 Y77.000 E0.00829
G1 X88.023 Y76.783 E0.00831
G1 X87.901 Y76.546 E0.00836
G1 X87.809 Y76.293 E0.00844
G1 X87.750 Y76.025 E0.00859
G1 X87.727 Y75.745 E0.00882
G1 X87.742 Y75.464 E0.00882
G1 X87.793 Y75.195 E0.00859
G1 X87.878 Y74.939 E0.00844
G1 X88.060 Y74.598 E0.01213
M204 S1250
G1 X88.440 Y74.573 F9000.000
G1 E-2.24000 F4200.000
;WIPE_START
G1 F7200.000
G1 X88.311 Y74.277 E-0.22599
G1 X88.507 Y74.099 E-0.14655
G1 X88.725 Y73.948 E-0.14688
G1 X88.961 Y73.825 E-0.14772
G1 X89.215 Y73.733 E-0.14924
G1 X89.383 Y73.696 E-0.09563
;WIPE_END
G1 E-0.04800 F4200.000
G1 Z0.400 F9000.000
G1 X91.292 Y75.246
G1 Z0.200
G1 E3.20000 F2400.000
M204 S800
;TYPE:Solid infill
;WIDTH:0.440938
G1 F1200.000
G1 X90.670 Y74.625 E0.02910
G1 X90.482 Y74.494 E0.00758
G1 X90.147 Y74.358 E0.01198
G1 X89.797 Y74.314 E0.01166
G1 X91.194 Y75.711 E0.06539
G1 X91.184 Y75.889 E0.00588
G1 X91.110 Y76.190 E0.01029
G1 X89.318 Y74.398 E0.08391
G1 X89.067 Y74.514 E0.00914
G1 X88.951 Y74.594 E0.00467
G1 X90.915 Y76.558 E0.09189
G1 X90.798 Y76.694 E0.00595
G1 X90.632 Y76.838 E0.00726
G1 X88.668 Y74.874 E0.09189
G1 X88.569 Y75.025 E0.00598
G1 X88.473 Y75.242 E0.00784
G1 X90.266 Y77.034 E0.08390
G1 X90.003 Y77.103 E0.00898
G1 X89.786 Y77.118 E0.00720
G1 X88.389 Y75.721 E0.06538
G1 X88.404 Y75.928 E0.00686
G1 X88.444 Y76.109 E0.00614
G1 X88.589 Y76.441 E0.01199
G1 X88.689 Y76.583 E0.00575
G1 X89.320 Y77.214 E0.02954
M204 S1250
; stop printing object speaker.stl id:1 copy 0
; printing object speaker.stl id:0 copy 0
G1 E-2.24000 F4200.000
;WIPE_START
G1 F7200.000
G1 X88.689 Y76.583 E-0.49458
G1 X88.589 Y76.441 E-0.09627
G1 X88.444 Y76.109 E-0.20070
G1 X88.404 Y75.928 E-0.10286
G1 X88.402 Y75.896 E-0.01759
;WIPE_END
G1 E-0.04800 F4200.000
G1 Z0.400 F9000.000
G1 X74.370 Y91.652
G1 Z0.200
G1 E3.20000 F2400.000
M204 S800
;TYPE:Support material
;WIDTH:0.42
G1 F1200.000
G1 X74.370 Y111.034 E0.60769
G1 X75.124 Y111.034 E0.02365
G1 X75.124 Y91.822 E0.60237
G1 X75.878 Y91.822 E0.02365
G1 X75.878 Y111.034 E0.60237
G1 X76.632 Y111.034 E0.02365
G1 X76.632 Y91.822 E0.60237
G1 X77.386 Y91.822 E0.02365
G1 X77.386 Y111.034 E0.60237
G1 X78.140 Y111.034 E0.02365
G1 X78.140 Y91.822 E0.60237
G1 X78.894 Y91.822 E0.02365
G1 X78.894 Y111.034 E0.60237
G1 X79.649 Y111.034 E0.02365
G1 X79.649 Y91.822 E0.60237
G1 X80.403 Y91.822 E0.02365
G1 X80.403 Y97.719 E0.18489
G1 X81.157 Y97.708 E0.02365
G1 X81.157 Y91.822 E0.18456
G1 X81.911 Y91.822 E0.02365
G1 X81.911 Y97.698 E0.18423
G1 X82.665 Y97.687 E0.02365
G1 X82.665 Y91.822 E0.18389
G1 X83.419 Y91.822 E0.02365
G1 X83.419 Y97.676 E0.18356
G1 X84.174 Y97.666 E0.02365
G1 X84.174 Y91.822 E0.18323
G1 X84.928 Y91.822 E0.02365
G1 X84.928 Y97.655 E0.18290
G1 X85.682 Y97.645 E0.02365
G1 X85.682 Y91.822 E0.18257
G1 X86.436 Y91.822 E0.02365
G1 X86.436 Y97.634 E0.18224
G1 X87.190 Y97.624 E0.02365
G1 X87.190 Y91.822 E0.18190
G1 X87.944 Y91.822 E0.02365
G1 X87.944 Y97.613 E0.18157
G1 X88.699 Y97.602 E0.02365
G1 X88.699 Y91.822 E0.18124
G1 X89.453 Y91.822 E0.02365
G1 X89.453 Y97.592 E0.18091
G1 X90.207 Y97.581 E0.02365
G1 X90.207 Y91.822 E0.18058
G1 X90.961 Y91.822 E0.02365
G1 X90.961 Y97.571 E0.18024
G1 X91.715 Y97.560 E0.02365
G1 X91.715 Y91.822 E0.17991
G1 X92.469 Y91.822 E0.02365
G1 X92.469 Y97.549 E0.17958
G1 X93.223 Y97.539 E0.02365
G1 X93.223 Y91.822 E0.17925
G1 X93.978 Y91.822 E0.02365
G1 X93.978 Y97.528 E0.17892
G1 X94.732 Y97.518 E0.02365
G1 X94.732 Y91.822 E0.17858
G1 X95.486 Y91.822 E0.02365
G1 X95.486 Y97.507 E0.17825
G1 X96.240 Y97.497 E0.02365
G1 X96.240 Y91.822 E0.17792
G1 X96.994 Y91.822 E0.02365
G1 X96.994 Y97.486 E0.17759
G1 X97.748 Y97.475 E0.02365
G1 X97.748 Y91.822 E0.17726
M73 P3 R46
G1 X98.503 Y91.822 E0.02365
G1 X98.503 Y97.465 E0.17692
G1 X99.257 Y97.454 E0.02365
G1 X99.257 Y91.822 E0.17659
G1 X100.011 Y91.822 E0.02365
G1 X100.011 Y97.444 E0.17626
G1 X100.123 Y97.442 E0.00353
G1 X100.436 Y97.746 E0.01366
G1 X100.622 Y111.034 E0.41668
G1 X100.765 Y111.034 E0.00447
G1 X100.765 Y91.822 E0.60237
G1 X101.519 Y91.822 E0.02365
G1 X101.519 Y111.034 E0.60237
G1 X102.273 Y111.034 E0.02365
G1 X102.273 Y91.822 E0.60237
G1 X103.028 Y91.822 E0.02365
G1 X103.028 Y111.034 E0.60237
G1 X103.782 Y111.034 E0.02365
G1 X103.782 Y91.822 E0.60237
G1 X104.536 Y91.822 E0.02365
G1 X104.536 Y111.034 E0.60237
G1 X105.290 Y111.034 E0.02365
G1 X105.290 Y91.822 E0.60237
G1 X106.044 Y91.822 E0.02365
G1 X106.044 Y111.204 E0.60769
M204 S1250
G1 E-2.24000 F4200.000
;WIPE_START
G1 F7200.000
G1 X106.044 Y109.558 E-0.91200
;WIPE_END
G1 E-0.04800 F4200.000
G1 Z0.400 F9000.000
G1 X97.748 Y110.661
G1 Z0.200
G1 E3.20000 F2400.000
M204 S800
G1 F1200.000
G1 X97.748 Y99.707 E0.34345
G1 X96.994 Y99.718 E0.02365
G1 X96.994 Y100.486 E0.02409
G1 X96.240 Y100.497 E0.02365
G1 X96.240 Y99.728 E0.02409
G1 X95.486 Y99.739 E0.02365
G1 X95.486 Y100.507 E0.02409
G1 X94.732 Y100.518 E0.02365
G1 X94.732 Y99.750 E0.02409
G1 X93.978 Y99.760 E0.02365
G1 X93.978 Y100.528 E0.02409
G1 X93.223 Y100.539 E0.02365
G1 X93.223 Y99.771 E0.02409
G1 X92.469 Y99.781 E0.02365
G1 X92.469 Y100.550 E0.02409
G1 X91.715 Y100.560 E0.02365
G1 X91.715 Y99.792 E0.02409
G1 X90.961 Y99.802 E0.02365
G1 X90.961 Y100.571 E0.02409
G1 X90.207 Y100.581 E0.02365
G1 X90.207 Y99.813 E0.02409
G1 X89.453 Y99.824 E0.02365
G1 X89.453 Y100.592 E0.02409
G1 X88.699 Y100.603 E0.02365
G1 X88.699 Y99.834 E0.02409
G1 X87.944 Y99.845 E0.02365
G1 X87.944 Y100.613 E0.02409
G1 X87.190 Y100.624 E0.02365
G1 X87.190 Y99.855 E0.02409
G1 X86.436 Y99.866 E0.02365
G1 X86.436 Y100.634 E0.02409
G1 X85.682 Y100.645 E0.02365
